X: 22716
T: Lament For Terrence MacDonough
R: waltz
M: 3/4
K: Eminor
|EF|G2 FEFG|E4 EF|G2 G/A/B GB|A4 dc|
B2 Bcdc|BA Bc dB|A2 GFED|D4 EF|
G2 FE ef|e4 f2|g2 fede|d4 BA|G2 G2 GA|
F2 F2 GA|B2 E2 EF|E4||
ED|B2 E2 EF|E4 ED|B2 G2 GA|G4 FE|
D2 d2 de|d2 cBAG|e2 fedc|B4 BA|
G4 BA|F4 A2|BA B^c de|d4 BA|
G2 G2 GA|F2 F2 GA|B2 E2 EF|E4||

